X:194
T:Ragged beggar man - Setter
%%VWML:SBG-1-2-40-0
F:http://www.vwml.org/record/SBG/1/2/40
Z:Original Sibelius transcriptions by M. & S. Graebe
M:6/8
I:linebreak $
K:F
V:1 treble nm="P1"
V:1
 c | f2 f d2 f | e2 d c2 c | def fe d | c3 c | f2 f f2 A | B2 B c2 d |$ c2 c c2 A | F4 | A2 F c3 | %10
w: |||||||||Ro- be- low|
 d2 B d3 | f2 d c2 A | G2 F G3 | %13
w: zan- ga- lee|Ro- be- low be-|low be- low|
T:Ragged beggar man - Gerrard
F:http://www.vwml.org/record/SBG/1/2/40
Z:Original Sibelius transcriptions by M. & S. Graebe
M:6/8
I:linebreak $
K:F
V:1 treble nm="P1"
V:1
 c | f2 f e2 f | d3 c2 c | f2 f e2 f | d3 z2 d | f2 f e2 f | d2 c ABc |$ d2 d d2 c | %8
 A3"^chorus" F2 G | A3 B2 | d3 d2 d | c2 A G2 F | G4 x x | %13
T:Ragged beggar man - Parsons
F:http://www.vwml.org/record/SBG/1/2/40
Z:Original Sibelius transcriptions by M. & S. Graebe
M:6/8
I:linebreak $
K:C
V:1 treble nm="P1"
V:1
 G | G2 c c2 c | c3- c2 c | B2 d d2 d | d3 d2 d | c2 e e2 d | c2 A G2 G |$ c2 A A2 G | %8
 G3 G2"^chorus" G | G2 c c3 | B2 d d3 | e2 c c2 A | G2 E G3 :| %13





